X:1
T:The Road To Ballymac x2
L:1/8
Q:1/4=180
M:4/4
K:D
|:"G"!mf! z2 .G,2 z2 .G,2 | z2 .G,2"C" z2 .D,2 |"G" G,2 z2"C" z4 |"G" z8"D7" |"G" z2 .B,2 z2 .G,2 |"G" z2 .B,2"C" z2 .G,2 |"C/D"G,G, z2 z2 G,G, |1"D" z4 A,4 :|2"D" z4"G" A,4 |:"G" B,2 .B,2"Em" z .B,3 |"C" .G,2 z A,-"D7" A,4 |"G" B,2 .B,2"Am" z B,3 |"C".C2 z C-"D7" C4 |"G" B,2 .B,2"Em" z B,3 |"C" .G,2 z C-"D7" C4 |"G" .D2 z C-"C" C4 |1"D7" .C2 z2"G" B,4 :|2"D7" .C2 z2"G" B,4 |:"D" z2 A,2- A,2 .A,2 |"A" z2 A,2- A,2 .A,2 |"Bm" z2 F,2- F,2 .F,2 |"F#m" z2 F,2- F,2 .F,2 |"G"z2 D,2- D,2 .D,2 |"D" z2 F,2- F,2 .F,2 |"G" D,2 G,2 B,2 G,2 |1"A7" A,2 G,2"A" !>!E,4 :|2"A" A,2 G,2"D" F,4 |:"D"z2 A,2 z2 .A,2 |"A" z2 A,2 z2 .A,2 |"Bm" z2 F,2 z2 .F,2 |"F#m" z2 F,2 z2 .F,2 |"G" z2 D,2 z2 .D,2 |"D"z2 F,2 z2 .F,2 |"G" D,2 G,2 B,2 G,2 |1"A7" A,2 G,2"A" !>!E,4 :|2"A" A,2 G,2"D" F,4 ||"A" A,2 .G,2 z4 |"D"!fermata!F,8 |
